X:110
T: Droney's Drummers
S: Chris Droney
Z: B.Black
R: jig
M: 6/8
L: 1/8
K: G
A | BAG g2 e | gfg abc' | bag edc | BdB cBA |
BAG g2 e | gfg abc' | bag edB | def g2 :|
e | gdd gdd | gdd dcB | Acc Acc | Acc cBA |
B3 cdc | BAG Adc | BAG edc | def g2 :|
